X:1
T:Title
%%score { ( 1 3 ) | 2 }
L:1/8
M:4/4
K:C
V:1 treble nm="Grand Piano"
V:3 treble 
V:2 bass 
V:1
 z4 z2[Q:1/4=112] G2 | [Ec]3 [Ec] [Ec]2 G2 | c4 z4 | F2 E2 D2 C2 | [B,G]6 G2 | A2 A2 B2 B2 | %6
 c3 c d2 d2 | e2 dc [DGB]2 [C^FA]2 | [B,G]6 G2 | G4 z4 | G4 z4 | AB [Gc]2 [Fc]2 [DFB]2 | %12
[M:3/4] [CEc]6 |] %13
V:2
 z4 z2 G,2 | [C,G,]3 [C,G,] [C,G,]2 [F,B,]2 | [E,C]3 [D,B,] [C,C]2 G,2 | F,2 E,2 D,2 C,2 | %4
 [G,,D,]6 [C,E,C]2 | [F,C]2 [F,C]2 [E,A,E]2 [E,^G,E]2 | [A,E]3 [A,E] [G,B,G]2 [G,B,G]2 | %7
 [CG]2[K:bass] [A,CE]2 D,2 D,2 | G,6 G,2 | E,3 D, C,2 G,2 | E,3 D, C,2 C,2 | %11
 [F,CF]2 [E,C]2 [D,A,]2 G,,2 |[M:3/4] C,6 |] %13
V:3
 x8 | x8 | G3- [G-d] [Ge]2 G2 | x8 | x8 | x8 | x8 | x8 | x8 | [Cc]3- [C-Fc-] [CEc]2 G2 | %10
 [Cc]3- [C-Fc-] [CEc]2 [CEG]2 | x8 |[M:3/4] x6 |] %13

